api/public/assets/img/ico_thanks.svg

<svg height="105" viewBox="0 0 107 105" width="107" xmlns="http://www.w3.org/2000/svg"><g fill="none" fill-rule="evenodd"><g fill="#171717"><path d="m75 0h-48c-4.418278 0-8 3.581722-8 8v89c0 4.418278 3.581722 8 8 8h48c4.418278 0 8-3.581722 8-8v-89c0-4.418278-3.581722-8-8-8zm-48 4.15841584h48c2.209139 0 4 1.7850115 4 3.98693478v88.70929878c0 2.2019233-1.790861 3.9869346-4 3.9869346h-48c-2.209139 0-4-1.7850113-4-3.9869346v-88.70929878c0-2.20192328 1.790861-3.98693478 4-3.98693478z" fill-rule="nonzero"/><g><circle cx="70.753906" cy="47.5" r="3.5"/><rect height="3" rx="1.5" width="8" x="64.253906" y="46"/></g><path d="m104.988281 101c1.10457 0 2 .895431 2 2 0 1.054362-.815878 1.918165-1.850737 1.994514l-.149263.005486h-102.988281c-1.1045695 0-2-.895431-2-2 0-1.054362.81587779-1.918165 1.85073766-1.994514l.14926234-.005486z" fill-rule="nonzero"/></g><path d="m39.5835 78.23675h25.23675v20.84775h-25.23675z" fill="#fff"/><g fill="#44b244" transform="translate(33 53)"><path d="m28 30v5c.4286555 4.8408936-3.80071 9-9 9s-9.42865552-4.1591064-9-9v-5c-1.29674093.0907687-2-.6008718-2-1 0-1.3083594.70325907-2 2-2h3c.5821188 0 1.2857703.6916406 1 2 .2857703.3991282-.4178812 1.0907687-1 1v5c-.2855741 3.1368796 2.5341337 5.9092313 6 6 3.4662588-.0907687 6.2855741-2.8631204 6-6v-5c-.5821188.0907687-1.2857703-.6008718-1-1-.2857703-1.3083594.4178812-2 1-2h3c1.2963485 0 2 .6916406 2 2 0 .3991282-.7036515 1.0907687-2 1zm-28-8c.01847957.0591475-.00525641.1151404 0 0l3 24c.05549819 3.583628 2.76298229 6 6 6h20c3.2376986 0 5.9439959-2.416372 6-6l3-24c.0055417.1151404-.0185898.0591475 0 0z"/><path d="m12.9492679 10.227672-6.25174431 2.568648c-.3624546.1489648-.77668842-.0238981-.92605157-.3863527l-.08205016-.2003458c-.14896486-.3628529.0238981-.777485.38635269-.9260516l6.25174425-2.56904625c.3624546-.14856655.7770867.02469471.9260516.386751l.0824485.20074408c.1485665.36205629-.0242965.77668837-.386751.92565327zm0 4.906281-6.25174431 2.5690462c-.3624546.1489649-.77668842-.0242964-.92605157-.3863527l-.08205016-.200744c-.14896486-.3620563.0238981-.7766885.38635269-.9256533l6.25174425-2.568648c.3624546-.1493631.7770867.0238981.9260516.3863527l.0824485.2003458c.1485665.3624546-.0242965.7766884-.386751.9256533zm2.908001-2.0771437c-.5396988-7.47293741-2.4053442-13.05672964-6.22904104-13.05672964-3.63968139 0-5.66146107 5.58379223-6.22545635 13.05672964l-.0234998 6.6942575h12.67555489z"/><path d="m33.6259481 10.9192433-3.5102333-1.72305335 2.3690988-4.825824 3.5102333 1.72265507z"/><path d="m36.0597311 6.12484533-3.6396813-1.78638335c-.6910536-.33935309-.9762376-1.17499016-.6368845-1.8660437l.2788112-.56837659c.3393531-.69105354 1.1745918-.97623759 1.8656454-.6368845l3.6396814 1.78638335c.6914518.33935309.9762376 1.17459186.6372828 1.86604369l-.2792096.5679783c-.3389547.69145184-1.1745918.97663589-1.8656454.6372828"/><path d="m34.6911663 19.8409635.9531361-1.941721c1.6652996-3.3927343.265269-7.4928525-3.127067-9.15775382-3.3927343-1.66529962-7.4928525-.26487067-9.1577539 3.12706702l-3.9133147 7.9724078z"/></g></g></svg>

<?xml version="1.0" encoding="UTF-8"?>
<svg width="107px" height="105px" viewBox="0 0 107 105" version="1.1" xmlns="http://www.w3.org/2000/svg" xmlns:xlink="http://www.w3.org/1999/xlink">
    <!-- Generator: sketchtool 63.1 (101010) - https://sketch.com -->
    <title>97C2C271-98B9-4B03-A820-C27E63F44E4D</title>
    <desc>Created with sketchtool.</desc>
    <g id="Page-1" stroke="none" stroke-width="1" fill="none" fill-rule="evenodd">
        <g id="covid-V2" transform="translate(-1022.000000, -1257.000000)">
            <g id="CCM" transform="translate(248.000000, 999.000000)">
                <g id="aidée" transform="translate(0.000000, 86.000000)">
                    <g id="3-steps" transform="translate(0.000000, 172.000000)">
                        <g id="Group-17" transform="translate(707.000000, 0.000000)">
                            <g id="Step-1" transform="translate(67.000000, 0.000000)">
                                <path d="M75,0 L27,0 C22.581722,0 19,3.581722 19,8 L19,97 C19,101.418278 22.581722,105 27,105 L75,105 C79.418278,105 83,101.418278 83,97 L83,8 C83,3.581722 79.418278,0 75,0 Z M27,4.15841584 L75,4.15841584 C77.209139,4.15841584 79,5.94342734 79,8.14535062 L79,96.8546494 C79,99.0565727 77.209139,100.841584 75,100.841584 L27,100.841584 C24.790861,100.841584 23,99.0565727 23,96.8546494 L23,8.14535062 C23,5.94342734 24.790861,4.15841584 27,4.15841584 Z" id="Rectangle" fill="#171717" fill-rule="nonzero"></path>
                                <g id="Group-8" transform="translate(64.253906, 44.000000)" fill="#171717">
                                    <circle id="Oval-Copy" cx="6.5" cy="3.5" r="3.5"></circle>
                                    <rect id="Rectangle" x="0" y="2" width="8" height="3" rx="1.5"></rect>
                                </g>
                                <path d="M104.988281,101 C106.092851,101 106.988281,101.895431 106.988281,103 C106.988281,104.054362 106.172403,104.918165 105.137544,104.994514 L104.988281,105 L2,105 C0.8954305,105 0,104.104569 0,103 C0,101.945638 0.815877791,101.081835 1.85073766,101.005486 L2,101 L104.988281,101 Z" id="Path-2" fill="#171717" fill-rule="nonzero"></path>
                                <g id="Group-7" transform="translate(33.000000, 53.000000)">
                                    <rect id="Rectangle" fill="#FFFFFF" x="6.5835" y="25.23675" width="25.23675" height="20.84775"></rect>
                                    <g id="Group-30" fill="#44B244">
                                        <path d="M28,30 L28,35 C28.4286555,39.8408936 24.19929,44 19,44 C13.80071,44 9.57134448,39.8408936 10,35 L10,30 C8.70325907,30.0907687 8,29.3991282 8,29 C8,27.6916406 8.70325907,27 10,27 L13,27 C13.5821188,27 14.2857703,27.6916406 14,29 C14.2857703,29.3991282 13.5821188,30.0907687 13,30 L13,35 C12.7144259,38.1368796 15.5341337,40.9092313 19,41 C22.4662588,40.9092313 25.2855741,38.1368796 25,35 L25,30 C24.4178812,30.0907687 23.7142297,29.3991282 24,29 C23.7142297,27.6916406 24.4178812,27 25,27 L28,27 C29.2963485,27 30,27.6916406 30,29 C30,29.3991282 29.2963485,30.0907687 28,30 L28,30 Z M-7.81666398e-14,22 C0.0184795691,22.0591475 -0.00525641076,22.1151404 -7.81666398e-14,22 L3,46 C3.05549819,49.583628 5.76298229,52 9,52 L29,52 C32.2376986,52 34.9439959,49.583628 35,46 L38,22 C38.0055417,22.1151404 37.9814102,22.0591475 38,22 L-7.81666398e-14,22 Z" id="Fill-25"></path>
                                        <path d="M12.9492679,10.227672 L6.69752359,12.79632 C6.33506899,12.9452848 5.92083517,12.7724219 5.77147202,12.4099673 L5.68942186,12.2096215 C5.540457,11.8467686 5.71331996,11.4321365 6.07577455,11.2835699 L12.3275188,8.71452365 C12.6899734,8.5659571 13.1046055,8.73921836 13.2535704,9.10127465 L13.3360189,9.30201873 C13.4845854,9.66407502 13.3117224,10.0787071 12.9492679,10.227672 L12.9492679,10.227672 Z M12.9492679,15.133953 L6.69752359,17.7029992 C6.33506899,17.8519641 5.92083517,17.6787028 5.77147202,17.3166465 L5.68942186,17.1159025 C5.540457,16.7538462 5.71331996,16.339214 6.07577455,16.1902492 L12.3275188,13.6216012 C12.6899734,13.4722381 13.1046055,13.6454993 13.2535704,14.0079539 L13.3360189,14.2082997 C13.4845854,14.5707543 13.3117224,14.9849881 12.9492679,15.133953 L12.9492679,15.133953 Z M15.8572689,13.0568093 C15.3175701,5.58387189 13.4519247,7.966035e-05 9.62822786,7.966035e-05 C5.98854647,7.966035e-05 3.96676679,5.58387189 3.40277151,13.0568093 L3.37927171,19.7510668 L16.0548266,19.7510668 L15.8572689,13.0568093 Z" id="Fill-26"></path>
                                        <polygon id="Fill-27" points="33.6259481 10.9192433 30.1157148 9.19618995 32.4848136 4.37036595 35.9950469 6.09302102"></polygon>
                                        <path d="M36.0597311,6.12484533 L32.4200498,4.33846198 C31.7289962,3.99910889 31.4438122,3.16347182 31.7831653,2.47241828 L32.0619765,1.90404169 C32.4013296,1.21298815 33.2365683,0.927804096 33.9276219,1.26715719 L37.5673033,3.05354054 C38.2587551,3.39289363 38.5435409,4.2281324 38.2045861,4.91958423 L37.9253765,5.48756253 C37.5864218,6.17901437 36.7507847,6.46419842 36.0597311,6.12484533" id="Fill-28"></path>
                                        <path d="M34.6911663,19.8409635 L35.6443024,17.8992425 C37.309602,14.5065082 35.9095714,10.40639 32.5172354,8.74148868 C29.1245011,7.07618906 25.0243829,8.47661801 23.3594815,11.8685557 L19.4461668,19.8409635 L34.6911663,19.8409635 Z" id="Fill-29"></path>
                                    </g>
                                </g>
                            </g>
                        </g>
                    </g>
                </g>
            </g>
        </g>
    </g>
</svg>
